mobile/20/svg/private-mode-circle-fill-20.svg

<svg width="20" height="20" fill="none" xmlns="http://www.w3.org/2000/svg"><path d="M8.874 10.186c-.32.362-.816.594-1.374.594a1.832 1.832 0 0 1-1.374-.594.519.519 0 0 1 0-.678c.32-.362.816-.594 1.374-.594.558 0 1.054.233 1.374.594a.519.519 0 0 1 0 .678zM11.126 10.186c.32.362.816.594 1.374.594.558 0 1.054-.233 1.374-.594a.519.519 0 0 0 0-.678 1.828 1.828 0 0 0-1.374-.594c-.558 0-1.054.233-1.374.594a.519.519 0 0 0 0 .678z" fill="#000"/><path fill-rule="evenodd" clip-rule="evenodd" d="M10 18c-4.411 0-8-3.589-8-8s3.589-8 8-8 8 3.589 8 8-3.589 8-8 8zm3.794-11.014h-1.297c-.704 0-1.37.321-1.808.873a.882.882 0 0 1-1.38 0 2.304 2.304 0 0 0-1.807-.873H6.206C5.54 6.986 5 7.526 5 8.192v2.004c0 1.008.504 1.949 1.343 2.508l.162.108c.198.132.431.203.669.203h.339c.253 0 .5-.08.705-.228l1.126-.812a.88.88 0 0 1 .515-.166h.282a.88.88 0 0 1 .515.166l1.126.812c.205.148.452.228.705.228h.339a1.2 1.2 0 0 0 .669-.203l.162-.108A3.014 3.014 0 0 0 15 10.196V8.192c0-.666-.54-1.206-1.206-1.206z" fill="#000"/></svg>

<svg width="20" height="20" viewBox="0 0 20 20" fill="none" xmlns="http://www.w3.org/2000/svg">
<path d="M8.874 10.186C8.554 10.548 8.058 10.78 7.5 10.78C6.942 10.78 6.446 10.547 6.126 10.186C5.958 9.996 5.958 9.697 6.126 9.508C6.446 9.146 6.942 8.914 7.5 8.914C8.058 8.914 8.554 9.147 8.874 9.508C9.042 9.698 9.042 9.996 8.874 10.186Z" fill="black"/>
<path d="M11.126 10.186C11.446 10.548 11.942 10.78 12.5 10.78C13.058 10.78 13.554 10.547 13.874 10.186C14.042 9.996 14.042 9.697 13.874 9.508C13.554 9.146 13.058 8.914 12.5 8.914C11.942 8.914 11.446 9.147 11.126 9.508C10.958 9.698 10.958 9.996 11.126 10.186Z" fill="black"/>
<path fill-rule="evenodd" clip-rule="evenodd" d="M10 18C5.589 18 2 14.411 2 10C2 5.589 5.589 2 10 2C14.411 2 18 5.589 18 10C18 14.411 14.411 18 10 18ZM13.794 6.986H12.497C11.793 6.986 11.127 7.307 10.689 7.859C10.522 8.069 10.268 8.192 9.999 8.192C9.73 8.192 9.476 8.069 9.309 7.859C8.872 7.307 8.206 6.986 7.502 6.986H6.206C5.54 6.986 5 7.526 5 8.192V10.196C5 11.204 5.504 12.145 6.343 12.704L6.505 12.812C6.703 12.944 6.936 13.015 7.174 13.015H7.513C7.766 13.015 8.013 12.935 8.218 12.787L9.344 11.975C9.494 11.867 9.674 11.809 9.859 11.809H10.141C10.326 11.809 10.506 11.867 10.656 11.975L11.782 12.787C11.987 12.935 12.234 13.015 12.487 13.015H12.826C13.064 13.015 13.297 12.945 13.495 12.812L13.657 12.704C14.496 12.145 15 11.204 15 10.196V8.192C15 7.526 14.46 6.986 13.794 6.986Z" fill="black"/>
</svg>
